!!!!SEGMENT: pl-wn--mus-iii-105-719-1--008_zelenski-wladyslaw--25-preludyi-op-38-8-andantino-quasi-allegretto.krn
!!!cenid: 18xx:3741
!!!COM: Żeleński, Władysław
!!!COM-rismid: pe41024455
!!!CDT:
!!!CNT:
!!!GTL: 25 preludyi op. 38
!!!OTL: 8. Andantino quasi Allegretto
!!!PDT: 1881
!!!AGN:
!!!SMS-siglum: PL-Wn
!!!SMS-shelfmark: Mus.III.105.719/1
!!!SMS-shelfwork: 008 G
!!!SMS-variant:
!!!SMS-altvar:
!!!NIFC-rismid:
!!!URL-scan: https://polona.pl/item/25-preludyi-2-3-i-4-glosowych-na-organ-lub-fisharmonike-do-uzytku-organistow-i,ODE1NjEwMzc/2/#info:metadata
!!!ONB-nifc:
!!!AIN: 1 organ
!!!key: g
**kern	**fing	**kern	**fing	**dynam
*part1	*part1	*part1	*part1	*part1
*staff2	*staff2	*staff1	*staff1	*
*I"[Organ]	*	*I"[Organ]	*	*
*Iorgan	*	*Iorgan	*	*
*ICklav	*	*ICklav	*	*
*clefF4	*	*clefG2	*	*
*k[b-e-]	*	*k[b-e-]	*	*
*g:	*	*g:	*	*
*M3/4	*	*M3/4	*	*
=1	=1	=1	=1	=1
*Xtuplet	*below	*Xtuplet	*	*
4r	.	([4dd\	.	p
(4G\	4	12dd/L]	.	.
.	.	12b-/	4	.
.	.	12f#X/J	2	.
[4B-\	.	12g/L	1	.
.	.	12a/	3	.
.	.	12b-/J	4	.
=2	=2	=2	=2	=2
4B-\]	.	4cc\)	.	.
4A\	1	(2c/	.	.
4G\	.	.	.	.
=3	=3	=3	=3	=3
4F#X\	.	[4cc\	.	.
4G\	.	12cc/L]	.	.
.	.	12a/	3	.
.	.	12en/J	1	.
[4A\	.	12f#X/L	.	.
.	.	12g/	.	.
.	.	12a/J	.	.
=4	=4	=4	=4	=4
4A\]	.	4b-\)	.	.
4D\	.	(2B-/	.	.
4G\)	.	.	.	.
=5	=5	=5	=5	=5
!	!	!	!	!LO:HP:b:t=poco cresc.
4r	.	[4b-\	.	<
(4G\	4	12b-/L]	.	.
.	.	12g/	3	.
.	.	12d/J	1	.
4c\)	.	12e-/L	.	.
.	.	12f/	.	.
.	.	12g/J	.	.
=6	=6	=6	=6	=6
4r	.	[4a-X/	.	.
(4F\	4	12a-/L]	.	.
.	.	12f/	.	.
.	.	12c/J	.	.
4B-\	2	12d/L	.	.
.	.	12e-/	.	.
.	.	12f/J	.	.
=7	=7	=7	=7	=7
4E-\	5	[4g/	5	<
4e-\	1	12g/L]	.	.
.	.	12f#X/	2	.
.	.	12g/J	1	.
[4c\	2	12b-/L	3	.
.	.	12a/	2	.
.	.	12g/J	1	[
=8	=8	=8	=8	=8
4c\]	.	12f#X/L	2	>
.	.	12g/	3	.
.	.	12a/J	4	.
4B-\	.	4d/)	.	]
4A\)	.	4r	.	.
=9	=9	=9	=9	=9
([4d\	.	12r	.	p
.	.	(12dd/L	.	<
.	.	12en/J	.	.
12d\L]	.	12f#X/L	.	.
12B-\	2	12g/	.	.
12F#X\J	4	12a/J	1	.
12G\L	3	12b-\L	.	.
12A\	1	12cc\	.	.
12B-\J	2	12dd\J	.	[
=10	=10	=10	=10	=10
4c'\)	.	[4ee-\	.	>
(2C/	.	8ee-\L]	.	.
.	.	8cc\	4	.
.	.	8a\	2	.
.	.	8g\J)	1	]
=11	=11	=11	=11	=11
[4c\	.	12r	.	.
.	.	(12dd/L	.	.
.	.	12d/J	.	<
12c\L]	.	12en/L	.	.
12A\	2	12f#X/	.	.
!LO:TX:t=P:problem=główka nuty niewidoczna	!	!	!	!
12En\J	5	12g/J	1	.
12F#X\L	3	12a\L	.	.
12G\	2	12b-\	.	.
12A\J	1	12cc\J	.	[
!!LO:LB:g=original
=12	=12	=12	=12	=12
4B-'\)	2	[4dd\	.	>
(2BB-/	.	8dd/L]	.	.
.	.	8b-/	3	.
.	.	8g/	1	.
.	.	8f#X/J	2	]
=13	=13	=13	=13	=13
[4B-\	1	4g/)	1	.
12B-\L]	.	(4dd\	5	<
12G\	2	.	.	.
12D\J	5	.	.	.
12E-\L	3	4dd-X\	4	.
12F\	2	.	.	.
12G\J	1	.	.	.
=14	=14	=14	=14	=14
[4A-X\	2	4cc\)	3	.
12A-\L]	.	(12c/L	.	.
12F\	3	12d/	.	.
12C\J	5	12e-/J	.	.
12D\L	4	12f/L	1	.
12E-\	3	12g/	.	.
12F\J	2	12a-X/J	.	.
=15	=15	=15	=15	=15
12G\L	1	12b-/L	.	.
12F\	2	12a-X/	.	.
12G\J	1	12b-/J	.	.
[4A-X\	3	4cc\)	.	.
12A-\L]	.	(4d/	.	.
12G\	.	.	.	.
12F\J	.	.	.	.
=16	=16	=16	=16	=16
4E-\)	.	[4e-/	.	mf
(4e-\	2	12e-/L])	.	.
.	.	(12f/	.	.
.	.	12g/J	4	.
4d\	1	12f/L	2	.
.	.	12g/	.	.
.	.	12a-X/J	.	.
=17	=17	=17	=17	=17
4d-X\	2	[4b-X\	.	.
4c\	1	12b-/L]	.	.
.	.	12g/	3	.
.	.	12dn/J	1	.
4B-\	2	12en/L	2	.
.	.	12f/	.	.
.	.	12g/J	.	.
=18	=18	=18	=18	=18
8A-X\)	3	[4f/	.	.
8r	.	.	.	.
(4F\	1	12f/L])	.	.
.	.	(12g/	.	.
.	.	12a-X/J	.	.
4En\	3	12g/L	2	.
.	.	12a-/	.	.
.	.	12b-/J	.	.
=19	=19	=19	=19	=19
4E-X\	.	[4cc\	.	.
4D\	5	12cc/L]	.	.
.	.	12an/	.	.
.	.	12en/J	.	.
4c\	1	12f#X/L	.	.
.	.	12g/	.	.
.	.	12a/J	.	.
=20	=20	=20	=20	=20
8B-\)	2	[4g/	.	.
8r	.	.	.	.
(4G\	1	12g/L])	.	<
.	.	(12a/	.	.
.	.	12b-/J	.	.
4F#X\	2	12a/L	.	.
.	.	12b-/	.	.
.	.	12cc/J	.	.
=21	=21	=21	=21	=21
12Fn\L	1	12dd\L	.	.
12E-\	.	12cc\	.	.
12D\J	.	12bn\J	.	.
12E-\L	.	12cc\L	1	.
12D\	.	12dd\	.	.
12C\J	.	12ee-\J	.	.
12BBn/L	.	12ff\L	.	.
12C/	.	12ee-\	.	.
12D/J	.	12dd\J	.	[
!!LO:LB:g=original
=22	=22	=22	=22	=22
12C\L	.	12ee-\L	.	.
12D\	.	12cc\	1	.
12E-\J	.	12b-\J	3	.
4F'\)	.	12a/L	.	.
.	.	12g/	.	.
.	.	12a/J	.	.
4D'\	2	12b-/L	.	.
.	.	12a/	.	.
.	.	12b-/J	.	.
=23	=23	=23	=23	=23
(12BB-/L	1	12dd\L	.	.
12C/	.	12b-\	.	.
12D/J	.	12a\J	.	.
4E-'\)	1	12g/L	.	.
.	.	12f#X/	2	.
.	.	12g/J	1	.
4C'/	2	12b-/L	3	.
.	.	12a/	.	.
.	.	12g/J	.	.
=24	=24	=24	=24	=24
([4D\	.	12f#X/L	2	>
.	.	12g/	.	.
.	.	12a/J	.	.
12D\L]	.	4d/)	.	.
12E-\	2	.	.	.
12D\J	1	.	.	.
12C/L	.	4r	.	.
12BB-/	.	.	.	.
12AA/J	.	.	.	]
=25	=25	=25	=25	=25
!	!	!	!	!LO:HP:b=2
8GG\L)	.	([4dd\	.	p <
(8D\	2	.	.	.
8G\	1	12dd/L]	.	.
.	.	12b-/	.	.
8A\J	3	.	.	.
.	.	12f#X/J	.	.
[4B-\	2	12g/L	.	[
.	.	12a/	.	.
.	.	12b-/J	.	.
=26	=26	=26	=26	=26
8B-\L]	.	4cc\)	.	.
8En\J	5	.	.	.
4A\	1	(2c/	.	.
4G\	2	.	.	.
=27	=27	=27	=27	=27
8F#X\L)	3	[4cc\	.	.
!	!	!	!	!LO:HP:b=2
(8D\	.	.	.	<
8F#\	.	12cc/L]	.	.
.	.	12a/	.	.
8G\J	.	.	.	.
.	.	12en/J	.	.
[4A\	.	12f#X/L	.	[
.	.	12g/	.	.
.	.	12a/J	.	.
=28	=28	=28	=28	=28
4.A\])	.	4b-\)	.	.
.	.	(2B-/	.	.
(8D\	.	.	.	.
8G\L	.	.	.	.
8F#X\J)	.	.	.	.
=29	=29	=29	=29	=29
4r	.	[4b-\)	.	mf
(4G\	.	12b-/L]	.	.
.	.	(12g/	.	.
.	.	12d/J	.	.
4C/)	.	12e-/L	.	.
.	.	12f/	.	.
.	.	12g/J	.	.
=30	=30	=30	=30	=30
4r	.	[4a-X/	.	.
(4F\	2	12a-/L])	.	.
.	.	(12f/	.	.
.	.	12c/J	.	.
4BB-/	.	12d/L	.	.
.	.	12e-/	.	.
.	.	12f/J	.	.
!!LO:LB:g=original
=31	=31	=31	=31	=31
12E-\L	2	12g/L	5	.
12D\	3	12f#X/	2	.
12E-\J	2	12g/J	3	.
4C/)	5	12b-/L	.	<
.	.	12a/	.	.
.	.	12g/J	.	.
(4c\	.	12f#/L	.	.
.	.	12en/	.	.
.	.	12f#/J	.	.
=32	=32	=32	=32	=32
12B-\L	.	12g/L	3	.
12A\	.	12f#X/	2	.
12B-\J	.	12g/J	1	.
4E-\)	.	12dd\L	.	.
.	.	12cc\	.	.
.	.	12b-\J	.	.
(4e-\	.	12a/L	.	.
.	.	12g/	.	.
.	.	12a/J	.	.
=33	=33	=33	=33	=33
12d\L	2	12b-/L	3	.
12c\	3	12a/	1	.
12d\J	1	12b-/J	2	.
4G\	.	12ff\L	.	.
.	.	12een\	.	.
.	.	12dd\J	.	.
4A\	3	12cc#X\L	2	.
.	.	12bn\	1	.
.	.	12cc#\J	4	.
=34	=34	=34	=34	=34
[4B-\)	2	4dd\	5	.
12B-\L]	.	4b-\	4	.
(12G\	3	.	.	.
12D\J	5	.	.	.
12En\L	.	4g/	2	.
12F#X\	.	.	.	.
12G\J	.	.	.	.
=35	=35	=35	=35	=35
4A\	.	[4cc\)	.	.
4F#X\	.	12cc/L]	.	.
.	.	(12a/	.	.
.	.	12en/J	.	.
4D\	.	12f#X/L	.	.
.	.	12g/	.	.
.	.	12a/J	.	.
=36	=36	=36	=36	=36
[4G\	1	4b-\	.	p
12G\L])	.	4g/	.	.
(12E-\	2	.	.	.
12BBn\J	5	.	.	.
12C\L	4	4e-/	.	.
12D\	.	.	.	.
12E-\J	.	.	.	.
=37	=37	=37	=37	=37
4G\	.	[4a-X/	.	.
4D\	.	12a-/L])	.	.
.	.	(>12f/	.	.
.	.	12c/J	.	.
4BB-/	.	12d/L	.	.
.	.	12e-/	.	.
.	.	12f/J	.	.
=38	=38	=38	=38	=38
12E-\L	2	12g/L	5	<
12D\	3	12f#X/	2	.
12E-\J	2	12g/J	3	.
4C/	.	12b-/L	.	.
.	.	12a/	.	.
.	.	12g/J	.	[
4D\	2	12f#/L	.	>
.	.	12en/	.	.
.	.	12f#/J	.	.
=39	=39	=39	=39	=39
4GG/)	.	2g/)	.	]
4G'\	.	.	.	.
4r	.	4r	.	.
==	==	==	==	==
*-	*-	*-	*-	*-
!!!system-decoration: {(s1,s2)}
!!!ENC: Anastazja Marusiak
!!!END: 2022-03-11
!!!ENC: Kamil Watkowski
!!!END: 2022-03-15
!!!RDF**kern: > = above
!!!RDF**kern: < = below
